packages/katcn/src/icons/svg/navigation.svg

<svg xmlns="http://www.w3.org/2000/svg" fill="none" viewBox="0 0 24 24"><path fill="#000" d="M17.7 2h-6.5c-.6 0-1 .4-1 1s.4 1 1 1h6.5C19 4 20 5 20 6.3v11.5c0 1.3-1 2.3-2.3 2.3h-1L8.8 2.6c-.1-.4-.5-.6-.9-.6H6.3C3.9 2 2 3.9 2 6.3v11.5C2 20.1 3.9 22 6.3 22h11.4c2.4 0 4.3-1.9 4.3-4.3V6.3C22 3.9 20.1 2 17.7 2M6.3 4h1l3.4 7.5L4 14.9V6.3C4 5 5 4 6.3 4m0 16C5 20 4 19 4 17.7v-.6l7.5-3.8 3 6.7z"/></svg>

<svg width="24" height="24" viewBox="0 0 24 24" fill="none" xmlns="http://www.w3.org/2000/svg">
<path d="M17.7 2H11.2C10.6 2 10.2 2.4 10.2 3C10.2 3.6 10.6 4 11.2 4H17.7C19 4 20 5 20 6.3V17.8C20 19.1 19 20.1 17.7 20.1H16.7L8.8 2.6C8.7 2.2 8.3 2 7.9 2H6.3C3.9 2 2 3.9 2 6.3V17.8C2 20.1 3.9 22 6.3 22H16.1H17.7C20.1 22 22 20.1 22 17.7V6.3C22 3.9 20.1 2 17.7 2ZM6.3 4H7.3L10.7 11.5L4 14.9V6.3C4 5 5 4 6.3 4ZM6.3 20C5 20 4 19 4 17.7V17.1L11.5 13.3L14.5 20H6.3Z" fill="black"/>
</svg>
